src/assets/icons/twitter.svg

<svg width="24" height="25" viewBox="0 0 24 25" fill="none" xmlns="http://www.w3.org/2000/svg">
<path d="M12 0.375C5.37321 0.375 0 5.74821 0 12.375C0 19.0018 5.37321 24.375 12 24.375C18.6268 24.375 24 19.0018 24 12.375C24 5.74821 18.6268 0.375 12 0.375ZM17.767 9.42054C17.775 9.54643 17.775 9.67768 17.775 9.80625C17.775 13.7384 14.7804 18.2679 9.30804 18.2679C7.62054 18.2679 6.05625 17.7777 4.73839 16.9339C4.97946 16.9607 5.20982 16.9714 5.45625 16.9714C6.84911 16.9714 8.12946 16.5 9.15 15.7018C7.84286 15.675 6.74464 14.8179 6.36964 13.6393C6.82768 13.7063 7.24018 13.7063 7.71161 13.5857C7.03855 13.449 6.43359 13.0834 5.99951 12.5512C5.56542 12.019 5.32898 11.3529 5.33036 10.6661V10.6286C5.72411 10.8509 6.1875 10.9875 6.67232 11.0063C6.26476 10.7346 5.93051 10.3666 5.69923 9.9349C5.46794 9.50317 5.34676 9.02103 5.34643 8.53125C5.34643 7.97679 5.49107 7.47054 5.75089 7.03125C6.49795 7.9509 7.43017 8.70306 8.48696 9.23884C9.54375 9.77461 10.7014 10.082 11.8848 10.1411C11.4643 8.11875 12.975 6.48214 14.7911 6.48214C15.6482 6.48214 16.4196 6.84107 16.9634 7.41964C17.6357 7.29375 18.2786 7.04196 18.8518 6.70446C18.6295 7.39286 18.1634 7.97411 17.5446 8.34107C18.1446 8.27679 18.7232 8.11071 19.2589 7.87768C18.8545 8.47232 18.3482 9 17.767 9.42054Z" fill="#303030"/>
</svg>

<svg width="24" height="25" fill="none" xmlns="http://www.w3.org/2000/svg"><path d="M12 .375c-6.627 0-12 5.373-12 12s5.373 12 12 12 12-5.373 12-12-5.373-12-12-12Zm5.767 9.046c.008.125.008.257.008.385 0 3.932-2.995 8.462-8.467 8.462a8.437 8.437 0 0 1-4.57-1.334c.241.027.472.037.718.037a5.968 5.968 0 0 0 3.694-1.27 2.976 2.976 0 0 1-2.78-2.062c.458.067.87.067 1.342-.053a2.973 2.973 0 0 1-2.382-2.92v-.037c.394.222.857.359 1.342.377a2.978 2.978 0 0 1-.921-3.975 8.445 8.445 0 0 0 6.134 3.11c-.42-2.022 1.09-3.659 2.906-3.659a2.97 2.97 0 0 1 2.172.938 5.877 5.877 0 0 0 1.889-.716 2.96 2.96 0 0 1-1.307 1.637c.6-.064 1.178-.23 1.714-.463a6.235 6.235 0 0 1-1.492 1.543Z" fill="#303030"/></svg>
